Numix/16/status/indicator-keyboard-Lo-1.svg

<?xml version="1.0" encoding="UTF-8" standalone="no"?>
<svg
   xmlns:dc="http://purl.org/dc/elements/1.1/"
   xmlns:cc="http://creativecommons.org/ns#"
   xmlns:rdf="http://www.w3.org/1999/02/22-rdf-syntax-ns#"
   xmlns:svg="http://www.w3.org/2000/svg"
   xmlns="http://www.w3.org/2000/svg"
   xmlns:sodipodi="http://sodipodi.sourceforge.net/DTD/sodipodi-0.dtd"
   xmlns:inkscape="http://www.inkscape.org/namespaces/inkscape"
   viewBox="0 0 16 16"
   id="svg2"
   version="1.1"
   inkscape:version="0.91 r13725"
   sodipodi:docname="indicator-keyboard-Lo-1.svg">
  <metadata
     id="metadata14">
    <rdf:RDF>
      <cc:Work
         rdf:about="">
        <dc:format>image/svg+xml</dc:format>
        <dc:type
           rdf:resource="http://purl.org/dc/dcmitype/StillImage" />
      </cc:Work>
    </rdf:RDF>
  </metadata>
  <defs
     id="defs12" />
  <sodipodi:namedview
     pagecolor="#ffffff"
     bordercolor="#666666"
     borderopacity="1"
     objecttolerance="10"
     gridtolerance="10"
     guidetolerance="10"
     inkscape:pageopacity="0"
     inkscape:pageshadow="2"
     inkscape:window-width="459"
     inkscape:window-height="369"
     id="namedview10"
     showgrid="false"
     inkscape:zoom="14.75"
     inkscape:cx="8"
     inkscape:cy="8"
     inkscape:window-x="65"
     inkscape:window-y="24"
     inkscape:window-maximized="0"
     inkscape:current-layer="svg2" />
  <path
     style="fill:#ececec;fill-opacity:1"
     d="M 1.5996094 0 C 0.71320937 2.9605947e-16 0 0.71320937 0 1.5996094 L 0 14.400391 C 2.9605947e-16 15.286791 0.71320937 16 1.5996094 16 L 14.400391 16 C 15.286791 16 16 15.286791 16 14.400391 L 16 1.5996094 C 16 0.71320937 15.286791 0 14.400391 0 L 1.5996094 0 z M 2.4941406 4.859375 L 3.1074219 4.859375 L 3.1074219 10.564453 L 6.0410156 10.564453 L 6.0410156 11.095703 L 2.4941406 11.095703 L 2.4941406 4.859375 z M 8.8203125 6.3359375 C 9.1323125 6.3359375 9.4177812 6.395625 9.6757812 6.515625 C 9.9337811 6.629625 10.155797 6.7937656 10.341797 7.0097656 C 10.533797 7.2197656 10.681203 7.4753906 10.783203 7.7753906 C 10.891203 8.0753906 10.945312 8.4074375 10.945312 8.7734375 C 10.945312 9.1394375 10.891203 9.4734375 10.783203 9.7734375 C 10.681203 10.073438 10.533797 10.327109 10.341797 10.537109 C 10.155797 10.747109 9.9337811 10.913203 9.6757812 11.033203 C 9.4177812 11.147203 9.1323125 11.203125 8.8203125 11.203125 C 8.5083125 11.203125 8.2247969 11.147203 7.9667969 11.033203 C 7.7087969 10.913203 7.4830156 10.747109 7.2910156 10.537109 C 7.1050156 10.327109 6.9576094 10.073438 6.8496094 9.7734375 C 6.7476094 9.4734375 6.6972656 9.1394375 6.6972656 8.7734375 C 6.6972656 8.4074375 6.7476094 8.0753906 6.8496094 7.7753906 C 6.9576094 7.4753906 7.1050156 7.2197656 7.2910156 7.0097656 C 7.4830156 6.7937656 7.7087969 6.629625 7.9667969 6.515625 C 8.2247969 6.395625 8.5083125 6.3359375 8.8203125 6.3359375 z M 8.8203125 6.8652344 C 8.3583125 6.8652344 7.9926563 7.0406719 7.7226562 7.3886719 C 7.4526563 7.7306719 7.3183594 8.1914375 7.3183594 8.7734375 C 7.3183594 9.3554375 7.4526563 9.818156 7.7226562 10.160156 C 7.9926562 10.502156 8.3583125 10.673828 8.8203125 10.673828 C 9.2823125 10.673828 9.6499219 10.502156 9.9199219 10.160156 C 10.189922 9.818156 10.324219 9.3554375 10.324219 8.7734375 C 10.324219 8.1914375 10.189922 7.7306719 9.9199219 7.3886719 C 9.6499219 7.0406719 9.2823125 6.8652344 8.8203125 6.8652344 z M 13.236328 8.8417969 L 13.505859 8.8417969 L 13.505859 12.896484 L 13.125 12.896484 L 13.125 9.421875 C 13.0821 9.468675 13.025278 9.5157063 12.955078 9.5664062 C 12.888778 9.6171063 12.812363 9.66805 12.726562 9.71875 C 12.640763 9.76555 12.552584 9.812575 12.458984 9.859375 C 12.365384 9.902275 12.271334 9.9375437 12.177734 9.9648438 L 12.066406 9.671875 C 12.300406 9.5899751 12.508106 9.4880813 12.691406 9.3632812 C 12.874706 9.2345813 13.056928 9.0601969 13.236328 8.8417969 z "
     id="path4" />
</svg>

<svg xmlns="http://www.w3.org/2000/svg" viewBox="0 0 16 16">
 <path d="m 1.6 0 c -0.886 0 -1.6 0.713 -1.6 1.6 l 0 12.801 c 0 0.886 0.713 1.6 1.6 1.6 l 12.801 0 c 0.886 0 1.6 -0.713 1.6 -1.6 l 0 -12.801 c 0 -0.886 -0.713 -1.6 -1.6 -1.6 l -12.801 0 z m 0.895 4.859 l 0.613 0 l 0 5.705 l 2.934 0 l 0 0.531 l -3.547 0 l 0 -6.236 z m 6.326 1.477 c 0.312 0 0.597 0.06 0.855 0.18 c 0.258 0.114 0.48 0.278 0.666 0.494 c 0.192 0.21 0.339 0.466 0.441 0.766 c 0.108 0.3 0.162 0.632 0.162 0.998 c 0 0.366 -0.054 0.7 -0.162 1 c -0.102 0.3 -0.249 0.554 -0.441 0.764 c -0.186 0.21 -0.408 0.376 -0.666 0.496 c -0.258 0.114 -0.543 0.17 -0.855 0.17 c -0.312 0 -0.596 -0.056 -0.854 -0.17 c -0.258 -0.12 -0.484 -0.286 -0.676 -0.496 c -0.186 -0.21 -0.333 -0.464 -0.441 -0.764 c -0.102 -0.3 -0.152 -0.634 -0.152 -1 c 0 -0.366 0.05 -0.698 0.152 -0.998 c 0.108 -0.3 0.255 -0.556 0.441 -0.766 c 0.192 -0.216 0.418 -0.38 0.676 -0.494 c 0.258 -0.12 0.542 -0.18 0.854 -0.18 z m 0 0.529 c -0.462 0 -0.828 0.175 -1.098 0.523 c -0.27 0.342 -0.404 0.803 -0.404 1.385 c 0 0.582 0.134 1.045 0.404 1.387 c 0.27 0.342 0.636 0.514 1.098 0.514 c 0.462 0 0.83 -0.172 1.1 -0.514 c 0.27 -0.342 0.404 -0.805 0.404 -1.387 c 0 -0.582 -0.134 -1.043 -0.404 -1.385 c -0.27 -0.348 -0.638 -0.523 -1.1 -0.523 z m 4.416 1.977 l 0.27 0 l 0 4.055 l -0.381 0 l 0 -3.475 c -0.043 0.047 -0.1 0.094 -0.17 0.145 c -0.066 0.051 -0.143 0.102 -0.229 0.152 c -0.086 0.047 -0.174 0.094 -0.268 0.141 c -0.094 0.043 -0.188 0.078 -0.281 0.105 l -0.111 -0.293 c 0.234 -0.082 0.442 -0.184 0.625 -0.309 c 0.183 -0.129 0.366 -0.303 0.545 -0.521 z" style="fill:#ececec;fill-opacity:1"/>
</svg>
